app/content/themes/irontheme/images/general/water-filter.svg

<svg width="42" height="42" viewBox="0 0 42 42" fill="none" xmlns="http://www.w3.org/2000/svg">
<g clip-path="url(#clip0)">
<path d="M37.4114 5.57715C34.8796 5.57715 32.8189 7.63712 32.8176 10.1689V10.1696V23.9613H31.5038C31.1409 23.9613 30.8476 24.2547 30.8476 24.6176V28.5485C30.8476 28.9114 31.1409 29.2048 31.5038 29.2048H32.8163V29.8623C32.4534 29.8623 32.1601 30.1557 32.1601 30.5186C32.1601 30.8815 32.4534 31.1748 32.8163 31.1748V32.4873C32.8163 32.8502 33.1097 33.1436 33.4726 33.1436H33.6957C33.4023 34.271 32.3858 35.1084 31.1685 35.1104C31.1665 35.1104 31.1652 35.1097 31.1639 35.1097H3.93213C2.48641 35.1097 1.30975 33.9331 1.30975 32.4873C1.30975 32.4827 1.30713 32.4788 1.30713 32.4742V11.4821C1.30713 10.6263 1.85969 9.90446 2.62357 9.63343V12.1351C2.62357 12.1377 2.62225 12.139 2.62225 12.1416C2.62225 12.3234 2.69575 12.4875 2.81519 12.6062C2.93397 12.7257 3.09804 12.7992 3.27982 12.7992C3.28244 12.7992 3.28375 12.7979 3.28638 12.7979H3.93607V29.2015C3.93607 31.3724 5.70204 33.1377 7.87357 33.1377C10.0451 33.1377 11.8111 31.3724 11.8111 29.2015V12.7972H12.4686V29.2008C12.4686 31.3717 14.2346 33.137 16.4061 33.137C18.577 33.137 20.3423 31.3717 20.3423 29.2008V12.7972H20.9999V29.2008C20.9999 31.3717 22.7658 33.137 24.9374 33.137C27.1089 33.137 28.8749 31.3717 28.8749 29.2008V12.7972H29.5219C29.5246 12.7972 29.5259 12.7985 29.5285 12.7985C29.7096 12.7985 29.8737 12.725 29.9925 12.6062C30.1126 12.4868 30.1861 12.3227 30.1861 12.141C30.1861 12.1383 30.1848 12.137 30.1848 12.1344L30.1861 7.5459C30.1861 6.46046 29.3028 5.57715 28.2173 5.57715H4.59232C3.50688 5.57715 2.62357 6.46046 2.62357 7.5459V8.26712C1.126 8.57096 -0.00537109 9.89659 -0.00537109 11.4821V32.4873C-0.00537109 32.4932 -0.00208984 32.4985 -0.00208984 32.5037C0.00775391 34.6661 1.76782 36.4222 3.93213 36.4222H31.1573C31.1599 36.4222 31.1613 36.4235 31.1639 36.4235C33.111 36.4235 34.728 35.0021 35.0417 33.1436H35.442C35.8049 33.1436 36.0982 32.8502 36.0982 32.4873V31.1748C36.4605 31.1735 36.7532 30.8808 36.7532 30.5186C36.7532 30.1563 36.4605 29.8636 36.0982 29.8623V29.2048H38.067C38.4299 29.2048 38.7232 28.9114 38.7232 28.5485V21.986C38.7232 21.6231 38.4299 21.3298 38.067 21.3298C37.7041 21.3298 37.4107 21.6231 37.4107 21.986V23.9613H36.0982V10.1696C36.0982 9.4464 36.6862 8.8584 37.4094 8.8584C38.1333 8.8584 38.7219 9.4464 38.7219 10.1696V14.111C38.7219 14.4739 39.0153 14.7673 39.3782 14.7673H41.3469C41.7098 14.7673 42.0032 14.4739 42.0032 14.111V10.1775C42.0032 10.1748 42.0045 10.1735 42.0045 10.1709C42.0051 7.63843 39.9438 5.57715 37.4114 5.57715ZM10.4986 29.2008C10.4986 30.6472 9.32125 31.8245 7.87357 31.8245C6.42588 31.8245 5.24857 30.6472 5.24857 29.2008V15.4196H10.4986V29.2008ZM10.4986 14.1071H5.24857V12.7972H6.54729H6.55057H9.1795C9.18213 12.7972 9.18344 12.7985 9.18607 12.7985C9.18869 12.7985 9.19 12.7972 9.19263 12.7972H10.4986V14.1071ZM7.2101 11.4847L7.21404 10.8258H8.52982V11.4847H7.2101ZM19.0298 29.2008C19.0298 30.6472 17.8525 31.8245 16.4061 31.8245C14.9584 31.8245 13.7811 30.6472 13.7811 29.2008V15.4196H19.0298V29.2008ZM19.0298 14.1071H13.7811V12.7972H15.0825H15.0858H17.7147C17.7173 12.7972 17.7186 12.7985 17.7213 12.7985C17.7239 12.7985 17.7252 12.7972 17.7278 12.7972H19.0298V14.1071ZM15.7453 11.4847L15.7492 10.8258H17.065V11.4847H15.7453ZM27.5624 29.2008C27.5624 30.6472 26.3851 31.8245 24.9374 31.8245C23.4897 31.8245 22.3124 30.6472 22.3124 29.2008V15.4196H27.5624V29.2008ZM27.5624 14.1071H22.3124V12.7972H23.6177H23.6209H26.2499C26.2525 12.7972 26.2538 12.7985 26.2564 12.7985C26.2591 12.7985 26.2604 12.7972 26.263 12.7972H27.5624V14.1071ZM24.2805 11.4847L24.2844 10.8258H25.6002V11.4847H24.2805ZM3.93607 7.5459C3.93607 7.18365 4.23007 6.88965 4.59232 6.88965H28.2173C28.5796 6.88965 28.8736 7.18365 28.8736 7.5459L28.8723 11.4847H26.9127V10.1696C26.9127 9.80668 26.6193 9.51334 26.2564 9.51334H23.6347C23.6334 9.51334 23.6328 9.51334 23.6314 9.51334C23.5409 9.51334 23.4549 9.53171 23.3768 9.56452C23.3191 9.5888 23.2718 9.62818 23.2246 9.6669C23.2075 9.68068 23.1845 9.68855 23.1688 9.7043C23.1301 9.74302 23.1058 9.79224 23.0776 9.83818C23.0625 9.86377 23.0388 9.88477 23.0277 9.91234C23.0113 9.95171 23.0106 9.99634 23.0014 10.0383C22.9923 10.081 22.9752 10.1204 22.9752 10.1656L22.968 11.4847H18.3775V10.1696C18.3775 9.80668 18.0842 9.51334 17.7213 9.51334H15.0995C15.0982 9.51334 15.0976 9.51334 15.0963 9.51334C15.0057 9.51334 14.9197 9.53171 14.8416 9.56452C14.7839 9.5888 14.7366 9.62818 14.6894 9.6669C14.6723 9.68068 14.6493 9.68855 14.6336 9.7043C14.5949 9.74302 14.5706 9.79224 14.5424 9.83818C14.5273 9.86377 14.5037 9.88477 14.4925 9.91234C14.4761 9.95171 14.4754 9.99634 14.4663 10.0383C14.4571 10.081 14.44 10.1204 14.44 10.1656L14.4328 11.4847H9.84232V10.1696C9.84232 9.80668 9.54897 9.51334 9.18607 9.51334H6.56435C6.56304 9.51334 6.56238 9.51334 6.56107 9.51334C6.4705 9.51334 6.38454 9.53171 6.30644 9.56452C6.24869 9.5888 6.20144 9.62818 6.15419 9.6669C6.13713 9.68068 6.11416 9.68855 6.09841 9.7043C6.05969 9.74302 6.03541 9.79224 6.00719 9.83818C5.9921 9.86377 5.96847 9.88477 5.95732 9.91234C5.94091 9.95171 5.94025 9.99634 5.93107 10.0383C5.92188 10.081 5.90482 10.1204 5.90482 10.1656L5.8976 11.4847H3.93607V7.5459ZM34.7864 31.8311H34.4517C34.4491 31.8311 34.4478 31.8298 34.4451 31.8298C34.4425 31.8298 34.4412 31.8311 34.4386 31.8311H34.1282V31.1748H34.7857V31.8311H34.7864ZM34.7864 29.8623H34.1288V29.2048H34.7864V29.8623ZM37.4114 25.2738V27.8923H32.1601V25.2738H37.4114ZM40.6913 13.4548H40.0351V12.7959H40.6913V13.4548ZM40.6913 10.1696V11.4834H40.0351V10.1696C40.0351 8.72321 38.8578 7.5459 37.4101 7.5459C35.9637 7.5459 34.7864 8.72321 34.7864 10.1696V23.9613H34.1301V10.1709C34.1301 8.36162 35.6021 6.88965 37.4114 6.88965C39.2187 6.88965 40.6893 8.35899 40.692 10.1656C40.692 10.167 40.6913 10.1683 40.6913 10.1696Z" fill="url(#paint0_linear)"/>
<path d="M6.56128 21.9844H9.18628C9.54918 21.9844 9.84253 21.691 9.84253 21.3281C9.84253 20.9652 9.54918 20.6719 9.18628 20.6719H6.56128C6.19837 20.6719 5.90503 20.9652 5.90503 21.3281C5.90503 21.691 6.19837 21.9844 6.56128 21.9844Z" fill="url(#paint1_linear)"/>
<path d="M8.53003 22.6416H7.21753C6.85462 22.6416 6.56128 22.9349 6.56128 23.2979C6.56128 23.6608 6.85462 23.9541 7.21753 23.9541H8.53003C8.89294 23.9541 9.18628 23.6608 9.18628 23.2979C9.18628 22.9349 8.89294 22.6416 8.53003 22.6416Z" fill="url(#paint2_linear)"/>
<path d="M15.0938 21.9844H17.7188C18.0817 21.9844 18.375 21.691 18.375 21.3281C18.375 20.9652 18.0817 20.6719 17.7188 20.6719H15.0938C14.7308 20.6719 14.4375 20.9652 14.4375 21.3281C14.4375 21.691 14.7308 21.9844 15.0938 21.9844Z" fill="url(#paint3_linear)"/>
<path d="M17.0625 22.6416H15.75C15.3871 22.6416 15.0938 22.9349 15.0938 23.2979C15.0938 23.6608 15.3871 23.9541 15.75 23.9541H17.0625C17.4254 23.9541 17.7188 23.6608 17.7188 23.2979C17.7188 22.9349 17.4254 22.6416 17.0625 22.6416Z" fill="url(#paint4_linear)"/>
<path d="M23.625 21.9844H26.25C26.6129 21.9844 26.9062 21.691 26.9062 21.3281C26.9062 20.9652 26.6129 20.6719 26.25 20.6719H23.625C23.2621 20.6719 22.9688 20.9652 22.9688 21.3281C22.9688 21.691 23.2621 21.9844 23.625 21.9844Z" fill="url(#paint5_linear)"/>
<path d="M25.5938 22.6416H24.2812C23.9183 22.6416 23.625 22.9349 23.625 23.2979C23.625 23.6608 23.9183 23.9541 24.2812 23.9541H25.5938C25.9567 23.9541 26.25 23.6608 26.25 23.2979C26.25 22.9349 25.9567 22.6416 25.5938 22.6416Z" fill="url(#paint6_linear)"/>
</g>
<defs>
<linearGradient id="paint0_linear" x1="42.0045" y1="21.0003" x2="-0.00537091" y2="21.0003" gradientUnits="userSpaceOnUse">
<stop stop-color="#2063B1"/>
<stop offset="1" stop-color="#3CBAFC"/>
</linearGradient>
<linearGradient id="paint1_linear" x1="9.84253" y1="21.3281" x2="5.90503" y2="21.3281" gradientUnits="userSpaceOnUse">
<stop stop-color="#2063B1"/>
<stop offset="1" stop-color="#3CBAFC"/>
</linearGradient>
<linearGradient id="paint2_linear" x1="9.18628" y1="23.2979" x2="6.56128" y2="23.2979" gradientUnits="userSpaceOnUse">
<stop stop-color="#2063B1"/>
<stop offset="1" stop-color="#3CBAFC"/>
</linearGradient>
<linearGradient id="paint3_linear" x1="18.375" y1="21.3281" x2="14.4375" y2="21.3281" gradientUnits="userSpaceOnUse">
<stop stop-color="#2063B1"/>
<stop offset="1" stop-color="#3CBAFC"/>
</linearGradient>
<linearGradient id="paint4_linear" x1="17.7188" y1="23.2979" x2="15.0938" y2="23.2979" gradientUnits="userSpaceOnUse">
<stop stop-color="#2063B1"/>
<stop offset="1" stop-color="#3CBAFC"/>
</linearGradient>
<linearGradient id="paint5_linear" x1="26.9063" y1="21.3281" x2="22.9688" y2="21.3281" gradientUnits="userSpaceOnUse">
<stop stop-color="#2063B1"/>
<stop offset="1" stop-color="#3CBAFC"/>
</linearGradient>
<linearGradient id="paint6_linear" x1="26.25" y1="23.2979" x2="23.625" y2="23.2979" gradientUnits="userSpaceOnUse">
<stop stop-color="#2063B1"/>
<stop offset="1" stop-color="#3CBAFC"/>
</linearGradient>
<clipPath id="clip0">
<rect width="42" height="42" fill="white"/>
</clipPath>
</defs>
</svg>

<svg width="42" height="42" viewBox="0 0 42 42" fill="none" xmlns="http://www.w3.org/2000/svg"><g clip-path="url(#clip0)"><path d="M37.411 5.577a4.6 4.6 0 00-4.593 4.592v13.792h-1.314a.656.656 0 00-.656.657v3.93c0 .363.293.657.656.657h1.312v.657a.656.656 0 100 1.313v1.312c0 .363.294.657.657.657h.223a2.621 2.621 0 01-2.527 1.966H3.932a2.626 2.626 0 01-2.622-2.623c0-.004-.003-.008-.003-.013V11.482c0-.856.553-1.578 1.317-1.849v2.502l-.002.007c0 .181.074.346.193.464.119.12.283.193.465.193l.006-.001h.65V29.2a3.94 3.94 0 003.938 3.937 3.94 3.94 0 003.937-3.936V12.796h.658V29.2a3.94 3.94 0 003.937 3.936 3.94 3.94 0 003.936-3.936V12.797H21v16.404a3.94 3.94 0 003.937 3.936 3.94 3.94 0 003.938-3.936V12.797h.647l.007.002a.654.654 0 00.463-.193.653.653 0 00.194-.465l-.001-.007.001-4.588a1.971 1.971 0 00-1.969-1.969H4.592a1.971 1.971 0 00-1.968 1.969v.721a3.287 3.287 0 00-2.63 3.215v21.005c0 .006.004.011.004.017a3.94 3.94 0 003.934 3.918h27.225l.007.002a3.94 3.94 0 003.878-3.28h.4a.656.656 0 00.656-.657v-1.312a.656.656 0 000-1.313v-.657h1.969a.656.656 0 00.656-.656v-6.563a.656.656 0 10-1.312 0v1.975h-1.313V10.17a1.312 1.312 0 012.624 0v3.941c0 .363.293.656.656.656h1.969a.656.656 0 00.656-.656v-3.934l.002-.006a4.599 4.599 0 00-4.594-4.594zM10.5 29.201a2.627 2.627 0 01-2.625 2.623 2.627 2.627 0 01-2.625-2.623V15.42h5.25V29.2zm0-15.094H5.25v-1.31h3.93l.006.002.007-.002h1.306v1.31zm-3.29-2.622l.004-.66H8.53v.66H7.21zM19.03 29.2a2.627 2.627 0 01-2.624 2.623 2.627 2.627 0 01-2.625-2.623V15.42h5.249V29.2zm0-15.094h-5.25v-1.31h3.934l.006.002.007-.002h1.302v1.31zm-3.285-2.622l.004-.66h1.316v.66h-1.32zM27.562 29.2a2.627 2.627 0 01-2.625 2.623 2.627 2.627 0 01-2.625-2.623V15.42h5.25V29.2zm0-15.094h-5.25v-1.31h3.938l.006.002.007-.002h1.3v1.31zm-3.282-2.622l.004-.66H25.6v.66h-1.32zM3.936 7.545c0-.361.294-.655.656-.655h23.625c.363 0 .657.294.657.656l-.002 3.939h-1.96V10.17a.656.656 0 00-.656-.657h-2.625a.656.656 0 00-.254.052c-.058.024-.105.063-.152.102-.018.014-.04.022-.056.037-.039.039-.063.088-.091.134-.015.026-.04.047-.05.074-.017.04-.017.084-.027.126-.009.043-.026.082-.026.128l-.007 1.319h-4.59V10.17a.656.656 0 00-.657-.657h-2.625a.656.656 0 00-.254.052c-.058.024-.105.063-.153.102-.017.014-.04.022-.055.037-.04.039-.063.088-.092.134-.015.026-.038.047-.05.074-.016.04-.017.084-.026.126-.009.043-.026.082-.026.128l-.007 1.319h-4.59V10.17a.656.656 0 00-.657-.657H6.561a.656.656 0 00-.255.052.623.623 0 00-.152.102c-.017.014-.04.022-.056.037-.038.039-.063.088-.09.134-.016.026-.04.047-.05.074-.017.04-.018.084-.027.126-.01.043-.026.082-.026.128l-.007 1.319H3.936v-3.94zm30.85 24.286h-.334l-.007-.001-.006.001h-.31v-.656h.657v.656zm0-1.969h-.657v-.657h.657v.657zm2.625-4.588v2.618h-5.25v-2.618h5.25zm3.28-11.82h-.656v-.658h.656v.659zm0-3.284v1.313h-.656V10.17a2.627 2.627 0 00-2.625-2.624 2.627 2.627 0 00-2.624 2.624v13.79h-.656V10.17a3.285 3.285 0 013.281-3.281 3.285 3.285 0 013.281 3.276v.004z" fill="url(#paint0_linear)"/><path d="M6.561 21.984h2.625a.656.656 0 100-1.312H6.561a.656.656 0 100 1.312z" fill="url(#paint1_linear)"/><path d="M8.53 22.642H7.218a.656.656 0 100 1.312H8.53a.656.656 0 100-1.312z" fill="url(#paint2_linear)"/><path d="M15.094 21.984h2.625a.656.656 0 100-1.312h-2.625a.656.656 0 100 1.312z" fill="url(#paint3_linear)"/><path d="M17.063 22.642H15.75a.656.656 0 100 1.312h1.313a.656.656 0 100-1.312z" fill="url(#paint4_linear)"/><path d="M23.625 21.984h2.625a.656.656 0 100-1.312h-2.625a.656.656 0 100 1.312z" fill="url(#paint5_linear)"/><path d="M25.594 22.642H24.28a.656.656 0 100 1.312h1.313a.656.656 0 100-1.312z" fill="url(#paint6_linear)"/></g><defs><linearGradient id="paint0_linear" x1="42.005" y1="21" x2="-.005" y2="21" gradientUnits="userSpaceOnUse"><stop stop-color="#2063B1"/><stop offset="1" stop-color="#3CBAFC"/></linearGradient><linearGradient id="paint1_linear" x1="9.843" y1="21.328" x2="5.905" y2="21.328" gradientUnits="userSpaceOnUse"><stop stop-color="#2063B1"/><stop offset="1" stop-color="#3CBAFC"/></linearGradient><linearGradient id="paint2_linear" x1="9.186" y1="23.298" x2="6.561" y2="23.298" gradientUnits="userSpaceOnUse"><stop stop-color="#2063B1"/><stop offset="1" stop-color="#3CBAFC"/></linearGradient><linearGradient id="paint3_linear" x1="18.375" y1="21.328" x2="14.438" y2="21.328" gradientUnits="userSpaceOnUse"><stop stop-color="#2063B1"/><stop offset="1" stop-color="#3CBAFC"/></linearGradient><linearGradient id="paint4_linear" x1="17.719" y1="23.298" x2="15.094" y2="23.298" gradientUnits="userSpaceOnUse"><stop stop-color="#2063B1"/><stop offset="1" stop-color="#3CBAFC"/></linearGradient><linearGradient id="paint5_linear" x1="26.906" y1="21.328" x2="22.969" y2="21.328" gradientUnits="userSpaceOnUse"><stop stop-color="#2063B1"/><stop offset="1" stop-color="#3CBAFC"/></linearGradient><linearGradient id="paint6_linear" x1="26.25" y1="23.298" x2="23.625" y2="23.298" gradientUnits="userSpaceOnUse"><stop stop-color="#2063B1"/><stop offset="1" stop-color="#3CBAFC"/></linearGradient><clipPath id="clip0"><path fill="#fff" d="M0 0h42v42H0z"/></clipPath></defs></svg>
